X: 2
T: Irish Lamentation
R: waltz
M: 3/4
L: 1/8
K: Gmaj
"G" B2 B2 Bc | B3 A G2 | "Am"{g}a2 A2 AB | "D" A4 GA |"G" B2 cB AG | "C"E3 GFE | "D7" DE G2 {G}A2 | "G" G4 :|"G" B2 d2 d2 | de dB AB | "C" {f}G2 g2 g2 | "D7" g3 fed |"G" B2 d2 d2 | de dB AB | "C" {f}G2 g2 g2 | "D7"g4 de |"F" =f>e fg fg | "C"e>d eg eg | "G" d2 ed cB | "D7" A4 GA | "G" B2 cB AG | "C" E3 GFE | "D7" DE G2 G-A | "G" G4 :|


Tune 8973	Setting 19804

